src/icons/dhall.svg

<svg viewBox="0 0 24 24" xmlns="http://www.w3.org/2000/svg">
  <path
    d="M15.81 2.853L21.148 8.2L19.608 9.718L14.282 4.391L15.81 2.851M2.853 20.373L9.848 13.411C9.79244 13.2325 9.78606 13.0424 9.82953 12.8606C9.873 12.6788 9.96471 12.512 10.095 12.378C10.515 11.958 11.204 11.958 11.623 12.378C12.043 12.808 12.043 13.486 11.623 13.906C11.343 14.186 10.923 14.261 10.59 14.154L3.628 21.149L15.046 17.329L18.845 10.484L13.528 5.157L6.673 8.956L2.853 20.373Z"
    fill="#78909C"
  />
</svg>

<svg viewBox="0 0 24 24" xmlns="http://www.w3.org/2000/svg"><path d="M15.81 2.853 21.148 8.2l-1.54 1.518-5.326-5.327 1.528-1.54M2.853 20.373l6.995-6.962a1.039 1.039 0 0 1 .247-1.033c.42-.42 1.109-.42 1.528 0 .42.43.42 1.108 0 1.528-.28.28-.7.355-1.033.248l-6.962 6.995 11.418-3.82 3.799-6.845-5.317-5.327-6.855 3.799z" style="fill:#78909c;stroke-width:1.0761"/></svg>
